X: 65
T:Sommarvals
M:3/4
L:1/4
C:Ale Mvller
R:waltz
N:Posted to the woodenflute mailing list September 2002
Z: Part of the abcs supplied as a data track on the
Z: Geckoes 'Red Horse' CD
K:G
|:dc | B>AG | A>GF | G3 | E3 |D2G | c2B |
B>AG|Adc| B>AG | A>GF | G3 | E3 | D2G | G2F |
[1 G3-|G:|[2 G3| G|:FG | A>BA | AFD | c3 | B3/2 A/G/F/ |
E A/B/c/A/ | d2 G | GFG | A3 | G>AG | F>GF | E>FE |
DGA | B>AG | A<dF |[1 G3- | G :|[2 G3 | G ||
